svg/暂停.svg

<svg width="24" height="24" viewBox="0 0 24 24" fill="none" xmlns="http://www.w3.org/2000/svg"><path d="M13.6548 5.79316C13.6548 5.3361 14.0253 4.96558 14.4824 4.96558H16.9652C17.4222 4.96558 17.7928 5.3361 17.7928 5.79316V19.0345C17.7928 19.4916 17.4222 19.8621 16.9652 19.8621H14.4824C14.0253 19.8621 13.6548 19.4916 13.6548 19.0345V5.79316Z" fill="#171717"/><path d="M6.20654 5.79316C6.20654 5.3361 6.57707 4.96558 7.03413 4.96558H9.51689C9.97395 4.96558 10.3445 5.3361 10.3445 5.79316V19.0345C10.3445 19.4916 9.97395 19.8621 9.51689 19.8621H7.03413C6.57707 19.8621 6.20654 19.4916 6.20654 19.0345V5.79316Z" fill="#171717"/></svg>

<svg fill="none" viewBox="0 0 24 24"><path fill="#171717" d="M13.655 5.793c0-.457.37-.827.827-.827h2.483c.457 0 .828.37.828.827v13.242c0 .457-.37.827-.828.827h-2.483a.83.83 0 0 1-.827-.827z"/><path fill="#171717" d="M6.207 5.793c0-.457.37-.827.827-.827h2.483c.457 0 .828.37.828.827v13.242c0 .457-.371.827-.828.827H7.034a.83.83 0 0 1-.827-.827z"/></svg>
